X:1
T:James Gibb editions
T:O Souverain Pasteur - Clemens non Papa
T:#
%%score [ 1 2 3 4 ]
L:1/8
Q:1/4=130
M:none
K:C
V:1 treble nm="Soprano" snm="S"
V:2 treble nm="Alto" snm="A"
V:3 treble-8 nm="Tenor" snm="T"
V:4 bass nm="Bass" snm="B"
V:1
"^Jacobus Clemens non Papa\n(1510-1556)""^Clément Marot\n(1496-1544)""^O Souverain Pasteur et Maistre" z8 G8 | %1
w: O|
 G4 G4 (c6 d2 | e2 f2 e8 d2 c2 | d4) e4 f4 e4 | (e2 d2 c4) (c4 B2 A2 | B4) B4 c8- | c4 c4 B4 d4- | %7
w: Sou- ve- rain *||* Pas- teur et|Mai\- * * stre, * *|* Re- gar\-|* de ce troup\-|
 d4 c8 B4 | c8 z4 G4 | G4 G4 (c6 d2 | e2 f2 e8 d2 c2- | d4) e4 f4 e4 | (e2 d2 c4) (c4 B2 A2 | %13
w: * peau pe-|tit, Et|de tes biens *||* souf- fre le|pai\- * * stre, * *|
 B4 B4 c8- | c4 c4 B4 d4- | d4 c8 B4 | c4 c4 G4 c4 | B4 c4 d4 e4 | d4 e4 f4 e4 | d4 c4) d8- | d16 | %21
w: * Sans des\-|* or- don- né|* ap- pe-|tit, Nou- ris- sant|pe- tit à pe-|tit, pe- tit à|pe\- * tit,||
 z4 d4 g8- | g4 f4 e4 d4 | c4 B4 (A4 G4 | F8) E8 | z4 G4 c8 | d4 e4 f4 (e4- | e2 c2 d4 e4 g4- | %28
w: A ce|* jour d'huy ta|cre- a- tu\- *|* re,|Par ce-|luy qui pour nous||
 g2) (f2 e8 d4) | e4 e4 e8 | c8 B8- | B4 B4 c6 B2 | A8 G8- | G8 z8 | z4 e4 e8 | c8 B8- | %36
w: * ve\- * *|stit, Ung corps|sub- ject|* à nour- ri-|tu- re,||Ung corps|sub- ject|
 B4 B4 c6 B2 | (A8 G8) | G16- | G16 |] %40
w: * à nour- ri-|tu\- *|re.||
V:2
 z8 z8 | z4 C4 C4 C4 | G8- G8 | G8 A4 G4 | (E4 F4) G8 | z4 G4 G4 G4 | A4 G8 (A4- | %7
w: |O Sou- ve-|rain *|Pas- teur et|Mai\- * stre,|Re- gar- de|ce troup- peau|
 A4 G2 F2 G4) G4 | E16 | z4 C4 C4 C4 | G8- G8 | G8 A4 G4 | (E4 F4) G8 | z4 G4 G4 G4 | A4 G8 (A4- | %15
w: * * * * pe-|tit,|Et de tes|biens *|souf- fre le|pai\- * stre,|Sans des- or-|don- né ap\-|
 A4 G2 F2 G4) G4 | E8 z4 G4 | G4 G4 A4 c4 | B4 c4 (c6 B2 | A4) G4 A8 | G4 D4 (G6 F2 | %21
w: * * * * pe-|tit, Nou-|ris- sant, nou- ris-|sant pe- tit *|* à pe-|tit, A ce *|
 E4) D4 C4 B,4 | E4 F4 G8 | C4 D6 C2 (C4- | C4 B,4) C4 C4 | (E6 F2 G4) (A4- | A2 B2 c8) B4 | %27
w: * jour d'huy ta|cre- a- tu-|re, cre- a- tu\-|* * re, Par|ce\- * * luy|* * * qui|
 c4 (B2 A2 G2 F2 E2 D2 | C4) (c6 A2 B4) | c4 z2 c2 c4 c4 | G8 z4 G4 | G4 G4 C4 (E4- | %32
w: pour nous * * * * *|* ve\- * *|stit, Ung corps sub-|ject, ung|corps sub- ject à|
 E2 D2 D4) (E6 F2 | G4) E4 D8 | E4 c4 c4 c4 | G8 z4 G4 | G4 G4 C4 (E4- | E2 D2 D4) (E6 F2 | %38
w: * * * nour\- *|* ri- tu-|re, Ung corps sub-|ject, ung|corps sub- ject à|* * * nour\- *|
 G4) E4 D8 | E16 |] %40
w: * ri- tu-|re.|
V:3
 G8 G4 G4 | (c6 d2 e2 f2 e4- | e2 d2 c8 B2 A2 | B4) c4 A4 B4 | c8 d8- | d4 d4 e4 e4 | %6
w: O Sou- ve-|rain * * * *||* Pas- teur et|Mai- stre,|* Re- gar- de|
 e4 e4 d4 (f4- | f2 e2 d2 c2 d8) | c4 G4 G4 G4 | (c6- d2 e2 f2 e4- | e2 d2 c8 B2 A2- | %11
w: ce troup- peau pe\-||tit, Et de tes|biens * * * *||
 B4) c4 A4 B4 | c8 d8- | d4 d4 e4 d4 | e4 e4 d4 (f4- | f2 e2 d2 c2 d8) | c8 e8 | d4 e4 e4 g4- | %18
w: * souf- fre le|pai- stre,|* Sans des- or-|don- né ap- pe\-||tit, Nou-|ris- sant pe- tit|
 g4 g4 a4 g4 | f4 (g8 f4) | g8 z4 d4 | g6 f2 e4 d4 | c4 A4 G4 G4 | A4 B4 (c8 | d8) G4 G4 | %25
w: * à pe- tit,|à pe\- *|tit, A|ce jour d'huy ta|cre- a- tu- re,|cre- a- tu\-|* re, Par|
 c6 d2 e4 f4- | f4 g4 a4 g4 | f8 e4 e4 | g4 a2 g2 f8 | e4 g4 a4 g4 | e8 d8- | d4 e6 d2 (c4- | %32
w: ce- luy qui pour|* nous ve- stit,|par ce- luy|qui pour nous ve-|stit, Ung corps sub-|ject à|* nour- ri- tu\-|
 c4 B2 A2 B4) c2 c2 | G4 c8 B4 | c4 g4 a4 g4 | e8 d8- | d4 e6 d2 (c4- | c4 B2 A2 B4) c4 | %38
w: * * * * re, à|nour- ri- tu-|re, Ung corps sub-|ject à|* nour- ri- tu\-|* * * * re,|
 G4 c6 c2 B4 | c16 |] %40
w: à nour- ri- tu-|re.|
V:4
 z8 z8 | z8 z4 C,4 | C,4 C,4 G,8- | G,4 C,4 F,4 G,4 | A,8 G,8- | G,4 G,4 C6 B,2 | %6
w: |O|Sou- ve- rain|* Pas- teur et|Mai- stre,|* Re- gar- de|
 A,4 C4 G,4 (D,2 E,2 | F,2 G,2 A,4 G,8) | C,16- | C,8 z4 C,4 | C,4 C,4 G,8- | G,4 C,4 F,4 G,4 | %12
w: ce troup- peau pe- *||tit,|* Et|de tes biens|* souf- fre le|
 A,8 G,8- | G,4 G,4 (C6 B,2 | A,4) C4 G,4 D,2 (E,2 | F,2 G,2 A,4) G,8 | C,8 z4 C4 | G,4 C4 z4 C4 | %18
w: pai- stre,|* Sans des\- *|* or- don- né ap\-|* * * pe-|tit, Nou-|ris- sant, nou-|
 G,4 C4 F,4 C4 | D4 (E4 D8) | G,16- | G,8 z4 G,4 | C12 B,4 | A,4 G,4 F,4 E,4 | D,8 C,8- | C,8 z8 | %26
w: ris- sant pe- tit|à pe\- *|tit,|* A|ce jour|d'huy ta cre- a-|tu- re,||
 z4 C,4 F,4 G,4 | A,4 B,4 (C6 D2 | E4 D2 C2 D4) D4 | C8 z4 C4 | C4 C4 G,8- | G,4 E,4 A,6 G,2 | %32
w: Par ce- luy|qui pour nous *|* * * * ve-|stit, Ung|corps sub- ject|* à nour- ri-|
 F,8 E,4 C,4 | E,6 F,2 G,8 | C,8 z4 C4 | C4 C4 G,8- | G,4 E,4 A,6 G,2 | F,8 E,4 C,4 | E,6 F,2 G,8 | %39
w: tu- re, à|nour- ri- tu-|re, Ung|corps sub- ject|* à nour- ri-|tu- re, à|nour- ri- tu-|
 C,16 |] %40
w: re.|

